app/assets/img/ecosystem/optimism.svg

<svg width="250" height="50" viewBox="0 0 250 50" fill="none" xmlns="http://www.w3.org/2000/svg">
<path d="M67.7075 37.92C66.1955 37.92 64.7915 37.716 63.4955 37.308C62.1995 36.9 61.1075 36.288 60.2195 35.472C59.3315 34.656 58.6955 33.636 58.3115 32.412C57.9515 31.188 57.9035 29.76 58.1675 28.128C58.3595 27.096 58.5635 26.064 58.7795 25.032C59.0195 24 59.2595 22.956 59.4995 21.9C60.2915 18.66 61.7195 16.2 63.7835 14.52C65.8475 12.84 68.6315 12 72.1355 12C73.6475 12 75.0395 12.216 76.3115 12.648C77.6075 13.056 78.6995 13.68 79.5875 14.52C80.4995 15.36 81.1355 16.392 81.4955 17.616C81.8795 18.84 81.9275 20.268 81.6395 21.9C81.4715 22.956 81.2675 24 81.0275 25.032C80.8115 26.064 80.5835 27.096 80.3435 28.128C79.5275 31.416 78.0875 33.876 76.0235 35.508C73.9595 37.116 71.1875 37.92 67.7075 37.92ZM68.1755 32.736C69.4715 32.736 70.6115 32.352 71.5955 31.584C72.5795 30.816 73.2755 29.592 73.6835 27.912C73.9475 26.856 74.1755 25.86 74.3675 24.924C74.5835 23.988 74.7755 23.016 74.9435 22.008C75.2555 20.328 75.1115 19.104 74.5115 18.336C73.9115 17.568 72.9635 17.184 71.6675 17.184C70.3715 17.184 69.2315 17.568 68.2475 18.336C67.2875 19.104 66.6035 20.328 66.1955 22.008C65.9315 23.016 65.6915 23.988 65.4755 24.924C65.2835 25.86 65.0915 26.856 64.8995 27.912C64.6115 29.592 64.7555 30.816 65.3315 31.584C65.9075 32.352 66.8555 32.736 68.1755 32.736ZM85.4524 37.56C85.2124 37.56 85.0204 37.476 84.8764 37.308C84.7324 37.14 84.6844 36.924 84.7324 36.66L89.7004 13.26C89.7484 12.996 89.8804 12.78 90.0964 12.612C90.3124 12.444 90.5404 12.36 90.7804 12.36H100.356C101.82 12.36 103.14 12.528 104.316 12.864C105.516 13.2 106.512 13.716 107.304 14.412C108.096 15.108 108.648 15.984 108.96 17.04C109.272 18.072 109.284 19.284 108.996 20.676C108.396 23.436 107.172 25.476 105.324 26.796C103.5 28.116 101.04 28.776 97.9444 28.776H93.0844L91.4284 36.66C91.3804 36.924 91.2484 37.14 91.0324 37.308C90.8404 37.476 90.6124 37.56 90.3484 37.56H85.4524ZM94.0204 23.808H98.1604C99.1444 23.808 100.02 23.544 100.788 23.016C101.58 22.488 102.096 21.684 102.336 20.604C102.456 19.98 102.48 19.428 102.408 18.948C102.336 18.468 102.084 18.084 101.652 17.796C101.244 17.508 100.608 17.364 99.7444 17.364H95.4244L94.0204 23.808ZM115.649 37.56C115.385 37.56 115.181 37.476 115.037 37.308C114.893 37.14 114.845 36.924 114.893 36.66L118.889 18.012H112.481C112.241 18.012 112.049 17.928 111.905 17.76C111.761 17.568 111.713 17.352 111.761 17.112L112.589 13.26C112.637 12.996 112.757 12.78 112.949 12.612C113.165 12.444 113.405 12.36 113.669 12.36H133.037C133.301 12.36 133.493 12.444 133.613 12.612C133.757 12.78 133.805 12.996 133.757 13.26L132.929 17.112C132.881 17.352 132.749 17.568 132.533 17.76C132.341 17.928 132.113 18.012 131.849 18.012H125.441L121.481 36.66C121.433 36.924 121.301 37.14 121.085 37.308C120.893 37.476 120.665 37.56 120.401 37.56H115.649ZM134.511 37.56C134.247 37.56 134.043 37.476 133.899 37.308C133.755 37.14 133.707 36.924 133.755 36.66L138.759 13.26C138.807 12.996 138.939 12.78 139.155 12.612C139.371 12.444 139.599 12.36 139.839 12.36H144.699C144.939 12.36 145.131 12.444 145.275 12.612C145.419 12.78 145.467 12.996 145.419 13.26L140.415 36.66C140.367 36.924 140.235 37.14 140.019 37.308C139.827 37.476 139.611 37.56 139.371 37.56H134.511ZM149.279 37.56C149.015 37.56 148.811 37.476 148.667 37.308C148.523 37.14 148.475 36.924 148.523 36.66L153.491 13.26C153.539 12.996 153.671 12.78 153.887 12.612C154.103 12.444 154.343 12.36 154.607 12.36H158.495C158.879 12.36 159.143 12.468 159.287 12.684C159.455 12.876 159.563 13.032 159.611 13.152L163.499 24.528L172.283 13.152C172.355 13.032 172.499 12.876 172.715 12.684C172.955 12.468 173.267 12.36 173.651 12.36H177.539C177.803 12.36 178.007 12.444 178.151 12.612C178.295 12.78 178.343 12.996 178.295 13.26L173.327 36.66C173.279 36.924 173.147 37.14 172.931 37.308C172.715 37.476 172.475 37.56 172.211 37.56H167.891C167.651 37.56 167.459 37.476 167.315 37.308C167.171 37.14 167.123 36.924 167.171 36.66L169.979 23.376L164.471 30.684C164.303 30.876 164.099 31.068 163.859 31.26C163.643 31.428 163.367 31.512 163.031 31.512H161.159C160.823 31.512 160.583 31.428 160.439 31.26C160.295 31.092 160.187 30.9 160.115 30.684L157.559 23.052L154.643 36.66C154.595 36.924 154.463 37.14 154.247 37.308C154.055 37.476 153.839 37.56 153.599 37.56H149.279ZM181.036 37.56C180.772 37.56 180.568 37.476 180.424 37.308C180.28 37.14 180.232 36.924 180.28 36.66L185.284 13.26C185.332 12.996 185.464 12.78 185.68 12.612C185.896 12.444 186.124 12.36 186.364 12.36H191.224C191.464 12.36 191.656 12.444 191.8 12.612C191.944 12.78 191.992 12.996 191.944 13.26L186.94 36.66C186.892 36.924 186.76 37.14 186.544 37.308C186.352 37.476 186.136 37.56 185.896 37.56H181.036ZM203.796 37.92C201.396 37.92 199.428 37.584 197.892 36.912C196.38 36.24 195.288 35.352 194.616 34.248C193.968 33.12 193.74 31.932 193.932 30.684C193.98 30.492 194.076 30.324 194.22 30.18C194.388 30.012 194.58 29.928 194.796 29.928H199.404C199.74 29.928 199.98 29.988 200.124 30.108C200.268 30.228 200.412 30.384 200.556 30.576C200.652 30.936 200.844 31.284 201.132 31.62C201.42 31.956 201.816 32.232 202.32 32.448C202.848 32.64 203.496 32.736 204.264 32.736C205.656 32.736 206.772 32.52 207.612 32.088C208.452 31.656 208.944 31.068 209.088 30.324C209.232 29.796 209.136 29.364 208.8 29.028C208.488 28.668 207.924 28.356 207.108 28.092C206.316 27.804 205.248 27.516 203.904 27.228C202.152 26.844 200.712 26.316 199.584 25.644C198.456 24.948 197.664 24.072 197.208 23.016C196.776 21.936 196.716 20.652 197.028 19.164C197.508 16.956 198.696 15.216 200.592 13.944C202.488 12.648 204.948 12 207.972 12C209.532 12 210.912 12.216 212.112 12.648C213.336 13.08 214.356 13.656 215.172 14.376C215.988 15.096 216.576 15.864 216.936 16.68C217.296 17.472 217.416 18.252 217.296 19.02C217.272 19.212 217.176 19.392 217.008 19.56C216.84 19.704 216.648 19.776 216.432 19.776H211.608C211.368 19.776 211.152 19.728 210.96 19.632C210.792 19.536 210.648 19.38 210.528 19.164C210.528 18.636 210.252 18.18 209.7 17.796C209.148 17.388 208.416 17.184 207.504 17.184C206.472 17.184 205.608 17.376 204.912 17.76C204.216 18.12 203.784 18.684 203.616 19.452C203.496 19.932 203.556 20.352 203.796 20.712C204.06 21.072 204.54 21.384 205.236 21.648C205.956 21.912 206.94 22.188 208.188 22.476C210.3 22.884 211.956 23.436 213.156 24.132C214.356 24.804 215.16 25.656 215.568 26.688C216 27.72 216.06 28.98 215.748 30.468C215.22 32.916 213.936 34.776 211.896 36.048C209.88 37.296 207.18 37.92 203.796 37.92ZM220.18 37.56C219.916 37.56 219.712 37.476 219.568 37.308C219.424 37.14 219.376 36.924 219.424 36.66L224.392 13.26C224.44 12.996 224.572 12.78 224.788 12.612C225.004 12.444 225.244 12.36 225.508 12.36H229.396C229.78 12.36 230.044 12.468 230.188 12.684C230.356 12.876 230.464 13.032 230.512 13.152L234.4 24.528L243.184 13.152C243.256 13.032 243.4 12.876 243.616 12.684C243.856 12.468 244.168 12.36 244.552 12.36H248.44C248.704 12.36 248.908 12.444 249.052 12.612C249.196 12.78 249.244 12.996 249.196 13.26L244.228 36.66C244.18 36.924 244.048 37.14 243.832 37.308C243.616 37.476 243.376 37.56 243.112 37.56H238.792C238.552 37.56 238.36 37.476 238.216 37.308C238.072 37.14 238.024 36.924 238.072 36.66L240.88 23.376L235.372 30.684C235.204 30.876 235 31.068 234.76 31.26C234.544 31.428 234.268 31.512 233.932 31.512H232.06C231.724 31.512 231.484 31.428 231.34 31.26C231.196 31.092 231.088 30.9 231.016 30.684L228.46 23.052L225.544 36.66C225.496 36.924 225.364 37.14 225.148 37.308C224.956 37.476 224.74 37.56 224.5 37.56H220.18Z" fill="white"/>
<g clip-path="url(#clip0_0_1)">
<path d="M25 50C38.8071 50 50 38.8071 50 25C50 11.1929 38.8071 0 25 0C11.1929 0 0 11.1929 0 25C0 38.8071 11.1929 50 25 50Z" fill="white"/>
<path fill-rule="evenodd" clip-rule="evenodd" d="M25 50C38.8071 50 50 38.8071 50 25C50 11.1929 38.8071 0 25 0C11.1929 0 0 11.1929 0 25C0 38.8071 11.1929 50 25 50ZM15.591 31.867C16.275 32.0823 17.016 32.19 17.814 32.19C19.6507 32.19 21.1137 31.7657 22.203 30.917C23.2923 30.0557 24.0523 28.7573 24.483 27.022C24.6097 26.4773 24.73 25.9327 24.844 25.388C24.9707 24.8433 25.0783 24.2923 25.167 23.735C25.319 22.8737 25.2937 22.12 25.091 21.474C24.901 20.828 24.5653 20.2833 24.084 19.84C23.6153 19.3967 23.039 19.0673 22.355 18.852C21.6837 18.624 20.949 18.51 20.151 18.51C18.3017 18.51 16.8323 18.9533 15.743 19.84C14.6537 20.7267 13.9 22.025 13.482 23.735C13.3553 24.2923 13.2287 24.8433 13.102 25.388C12.988 25.9327 12.8803 26.4773 12.779 27.022C12.6397 27.8833 12.665 28.637 12.855 29.283C13.0577 29.929 13.3933 30.4673 13.862 30.898C14.3307 31.3287 14.907 31.6517 15.591 31.867ZM19.866 28.846C19.3467 29.2513 18.745 29.454 18.061 29.454C17.3643 29.454 16.864 29.2513 16.56 28.846C16.256 28.4407 16.18 27.7947 16.332 26.908C16.4333 26.3507 16.5347 25.825 16.636 25.331C16.75 24.837 16.8767 24.324 17.016 23.792C17.2313 22.9053 17.5923 22.2593 18.099 21.854C18.6183 21.4487 19.22 21.246 19.904 21.246C20.588 21.246 21.0883 21.4487 21.405 21.854C21.7217 22.2593 21.7977 22.9053 21.633 23.792C21.5443 24.324 21.443 24.837 21.329 25.331C21.2277 25.825 21.1073 26.3507 20.968 26.908C20.7527 27.7947 20.3853 28.4407 19.866 28.846ZM25.6404 31.867C25.7164 31.9557 25.8177 32 25.9444 32H28.5284C28.6677 32 28.788 31.9557 28.8894 31.867C29.0034 31.7783 29.073 31.6643 29.0984 31.525L29.9724 27.364H32.5374C34.1714 27.364 35.4697 27.0157 36.4324 26.319C37.4077 25.6223 38.0537 24.5457 38.3704 23.089C38.5224 22.3543 38.516 21.7147 38.3514 21.17C38.1867 20.6127 37.8954 20.1503 37.4774 19.783C37.0594 19.4157 36.5337 19.1433 35.9004 18.966C35.2797 18.7887 34.583 18.7 33.8104 18.7H28.7564C28.6297 18.7 28.5094 18.7443 28.3954 18.833C28.2814 18.9217 28.2117 19.0357 28.1864 19.175L25.5644 31.525C25.539 31.6643 25.5644 31.7783 25.6404 31.867ZM32.6514 24.742H30.4664L31.2074 21.341H33.4874C33.9434 21.341 34.279 21.417 34.4944 21.569C34.7224 21.721 34.8554 21.9237 34.8934 22.177C34.9314 22.4303 34.9187 22.7217 34.8554 23.051C34.7287 23.621 34.4564 24.0453 34.0384 24.324C33.633 24.6027 33.1707 24.742 32.6514 24.742Z" fill="#FF0420"/>
</g>
<defs>
<clipPath id="clip0_0_1">
<rect width="50" height="50" fill="white"/>
</clipPath>
</defs>
</svg>

<svg width="250" height="50" viewBox="0 0 250 50" fill="none" xmlns="http://www.w3.org/2000/svg"><path d="M67.707 37.92c-1.511 0-2.915-.204-4.211-.612-1.297-.408-2.389-1.02-3.277-1.836-.888-.816-1.523-1.836-1.907-3.06-.36-1.224-.408-2.652-.145-4.284.192-1.032.396-2.064.612-3.096.24-1.032.48-2.076.72-3.132.792-3.24 2.22-5.7 4.284-7.38 2.064-1.68 4.849-2.52 8.352-2.52 1.512 0 2.904.216 4.176.648 1.296.408 2.388 1.032 3.276 1.872a6.692 6.692 0 0 1 1.909 3.096c.383 1.224.431 2.652.144 4.284a45.116 45.116 0 0 1-.612 3.132 142.997 142.997 0 0 1-.684 3.096c-.816 3.288-2.256 5.748-4.32 7.38-2.064 1.608-4.837 2.412-8.317 2.412zm.469-5.184c1.296 0 2.436-.384 3.42-1.152.983-.768 1.68-1.992 2.087-3.672.264-1.056.492-2.052.684-2.988.216-.936.408-1.908.576-2.916.313-1.68.169-2.904-.431-3.672-.6-.768-1.549-1.152-2.844-1.152-1.297 0-2.437.384-3.42 1.152-.96.768-1.645 1.992-2.053 3.672-.263 1.008-.503 1.98-.72 2.916a135.78 135.78 0 0 0-.575 2.988c-.288 1.68-.145 2.904.431 3.672.576.768 1.525 1.152 2.844 1.152zm17.276 4.824a.72.72 0 0 1-.576-.252c-.144-.168-.192-.384-.144-.648l4.968-23.4c.048-.264.18-.48.396-.648.216-.168.444-.252.684-.252h9.576c1.464 0 2.784.168 3.96.504 1.2.336 2.196.852 2.988 1.548.792.696 1.344 1.572 1.656 2.628.312 1.032.324 2.244.036 3.636-.6 2.76-1.824 4.8-3.672 6.12-1.824 1.32-4.284 1.98-7.38 1.98h-4.86l-1.656 7.884a1.03 1.03 0 0 1-.396.648c-.192.168-.42.252-.684.252h-4.896zm8.568-13.752h4.14c.984 0 1.86-.264 2.628-.792.792-.528 1.308-1.332 1.548-2.412.12-.624.144-1.176.072-1.656s-.324-.864-.756-1.152c-.408-.288-1.044-.432-1.908-.432h-4.32l-1.404 6.444zM115.65 37.56c-.264 0-.468-.084-.612-.252-.144-.168-.192-.384-.144-.648l3.996-18.648h-6.408a.72.72 0 0 1-.576-.252.78.78 0 0 1-.144-.648l.828-3.852c.048-.264.168-.48.36-.648.216-.168.456-.252.72-.252h19.368c.264 0 .456.084.576.252.144.168.192.384.144.648l-.828 3.852c-.048.24-.18.456-.396.648-.192.168-.42.252-.684.252h-6.408l-3.96 18.648a1.03 1.03 0 0 1-.396.648c-.192.168-.42.252-.684.252h-4.752zm18.862 0c-.264 0-.468-.084-.612-.252-.144-.168-.192-.384-.144-.648l5.004-23.4c.048-.264.18-.48.396-.648.216-.168.444-.252.684-.252h4.86a.72.72 0 0 1 .576.252c.144.168.192.384.144.648l-5.004 23.4a1.03 1.03 0 0 1-.396.648.959.959 0 0 1-.648.252h-4.86zm14.768 0c-.264 0-.468-.084-.612-.252-.144-.168-.192-.384-.144-.648l4.968-23.4c.048-.264.18-.48.396-.648.216-.168.456-.252.72-.252h3.888c.384 0 .648.108.792.324.168.192.276.348.324.468l3.888 11.376 8.784-11.376c.072-.12.216-.276.432-.468.24-.216.552-.324.936-.324h3.888c.264 0 .468.084.612.252.144.168.192.384.144.648l-4.968 23.4a1.03 1.03 0 0 1-.396.648 1.145 1.145 0 0 1-.72.252h-4.32a.72.72 0 0 1-.576-.252c-.144-.168-.192-.384-.144-.648l2.808-13.284-5.508 7.308a4.77 4.77 0 0 1-.612.576c-.216.168-.492.252-.828.252h-1.872c-.336 0-.576-.084-.72-.252a1.703 1.703 0 0 1-.324-.576l-2.556-7.632-2.916 13.608a1.03 1.03 0 0 1-.396.648.959.959 0 0 1-.648.252h-4.32zm31.757 0c-.264 0-.468-.084-.612-.252-.144-.168-.192-.384-.144-.648l5.004-23.4c.048-.264.18-.48.396-.648.216-.168.444-.252.684-.252h4.86a.72.72 0 0 1 .576.252c.144.168.192.384.144.648l-5.004 23.4a1.03 1.03 0 0 1-.396.648.959.959 0 0 1-.648.252h-4.86zm22.76.36c-2.4 0-4.368-.336-5.904-1.008-1.512-.672-2.604-1.56-3.276-2.664-.648-1.128-.876-2.316-.684-3.564.048-.192.144-.36.288-.504a.793.793 0 0 1 .576-.252h4.608c.336 0 .576.06.72.18.144.12.288.276.432.468.096.36.288.708.576 1.044.288.336.684.612 1.188.828.528.192 1.176.288 1.944.288 1.392 0 2.508-.216 3.348-.648.84-.432 1.332-1.02 1.476-1.764.144-.528.048-.96-.288-1.296-.312-.36-.876-.672-1.692-.936-.792-.288-1.86-.576-3.204-.864-1.752-.384-3.192-.912-4.32-1.584-1.128-.696-1.92-1.572-2.376-2.628-.432-1.08-.492-2.364-.18-3.852.48-2.208 1.668-3.948 3.564-5.22 1.896-1.296 4.356-1.944 7.38-1.944 1.56 0 2.94.216 4.14.648 1.224.432 2.244 1.008 3.06 1.728.816.72 1.404 1.488 1.764 2.304.36.792.48 1.572.36 2.34a.926.926 0 0 1-.288.54.86.86 0 0 1-.576.216h-4.824c-.24 0-.456-.048-.648-.144a1.176 1.176 0 0 1-.432-.468c0-.528-.276-.984-.828-1.368-.552-.408-1.284-.612-2.196-.612-1.032 0-1.896.192-2.592.576-.696.36-1.128.924-1.296 1.692-.12.48-.06.9.18 1.26.264.36.744.672 1.44.936.72.264 1.704.54 2.952.828 2.112.408 3.768.96 4.968 1.656 1.2.672 2.004 1.524 2.412 2.556.432 1.032.492 2.292.18 3.78-.528 2.448-1.812 4.308-3.852 5.58-2.016 1.248-4.716 1.872-8.1 1.872zm16.384-.36c-.264 0-.468-.084-.612-.252-.144-.168-.192-.384-.144-.648l4.968-23.4c.048-.264.18-.48.396-.648.216-.168.456-.252.72-.252h3.888c.384 0 .648.108.792.324.168.192.276.348.324.468l3.888 11.376 8.784-11.376c.072-.12.216-.276.432-.468.24-.216.552-.324.936-.324h3.888c.264 0 .468.084.612.252.144.168.192.384.144.648l-4.968 23.4a1.03 1.03 0 0 1-.396.648 1.145 1.145 0 0 1-.72.252h-4.32a.72.72 0 0 1-.576-.252c-.144-.168-.192-.384-.144-.648l2.808-13.284-5.508 7.308a4.77 4.77 0 0 1-.612.576c-.216.168-.492.252-.828.252h-1.872c-.336 0-.576-.084-.72-.252a1.703 1.703 0 0 1-.324-.576l-2.556-7.632-2.916 13.608a1.03 1.03 0 0 1-.396.648.959.959 0 0 1-.648.252h-4.32z" fill="#fff"/><g clip-path="url(#a)"><path d="M25 50c13.807 0 25-11.193 25-25S38.807 0 25 0 0 11.193 0 25s11.193 25 25 25z" fill="#fff"/><path fill-rule="evenodd" clip-rule="evenodd" d="M25 50c13.807 0 25-11.193 25-25S38.807 0 25 0 0 11.193 0 25s11.193 25 25 25zm-9.409-18.133a7.368 7.368 0 0 0 2.223.323c1.837 0 3.3-.424 4.389-1.273 1.09-.861 1.85-2.16 2.28-3.895.127-.545.247-1.09.361-1.634.127-.545.234-1.096.323-1.653.152-.861.127-1.615-.076-2.261a3.532 3.532 0 0 0-1.007-1.634c-.469-.443-1.045-.773-1.729-.988a6.815 6.815 0 0 0-2.204-.342c-1.85 0-3.319.443-4.408 1.33-1.09.887-1.843 2.185-2.261 3.895-.127.557-.253 1.108-.38 1.653-.114.545-.222 1.09-.323 1.634-.14.861-.114 1.615.076 2.261a3.618 3.618 0 0 0 1.007 1.615c.469.43 1.045.754 1.729.969zm4.275-3.021a2.85 2.85 0 0 1-1.805.608c-.697 0-1.197-.203-1.501-.608-.304-.405-.38-1.051-.228-1.938.101-.557.203-1.083.304-1.577.114-.494.24-1.007.38-1.539.215-.887.576-1.533 1.083-1.938a2.85 2.85 0 0 1 1.805-.608c.684 0 1.184.203 1.501.608.317.405.393 1.051.228 1.938-.089.532-.19 1.045-.304 1.539-.101.494-.222 1.02-.361 1.577-.215.887-.583 1.533-1.102 1.938zm5.774 3.021a.38.38 0 0 0 .304.133h2.584a.53.53 0 0 0 .361-.133.544.544 0 0 0 .21-.342l.873-4.161h2.565c1.634 0 2.933-.348 3.895-1.045.976-.697 1.622-1.773 1.938-3.23.152-.735.146-1.374-.019-1.919a2.898 2.898 0 0 0-.874-1.387c-.418-.367-.943-.64-1.577-.817-.62-.177-1.317-.266-2.09-.266h-5.054a.579.579 0 0 0-.36.133.544.544 0 0 0-.21.342l-2.622 12.35c-.025.14 0 .253.076.342zm7.011-7.125h-2.185l.741-3.401h2.28c.456 0 .792.076 1.007.228a.862.862 0 0 1 .4.608c.037.253.025.545-.039.874-.126.57-.399.994-.817 1.273a2.39 2.39 0 0 1-1.387.418z" fill="#FF0420"/></g><defs><clipPath id="a"><path fill="#fff" d="M0 0h50v50H0z"/></clipPath></defs></svg>
